X:58
T:Lancers Quadrilles No.3. Le4.058
B:L.Leadley MS#4 c1850
Z:Village Music Project, 2016 Steve Mansfield
M:6/8
L:1/8
Q:3/8=100
K:A
"_perhaps should be in Dmaj"\
F/G/ | A>BA A>BA | d2A A2 F/G/ | A>BA A>BA | eAA AFG |
A>BA A>BA | ddA eeB | f>ed A>Bc | d2D D2 !segno! ||
d/e/ | f>ed f>ed | d2A A3 | f>ed f>ed | age e3 |
f>ed f>ed | g>fe e>Hag | f>ed A>dc | d2D D2 |]

